!!!!SEGMENT: Ric2020-Peccata_mea_Domine
!!!id: Ric2020
!!!AGN: Motet
!!!voices: 4
!!!COM: Jean Richafort
!!!OTL: Peccata mea, Domine
**kern	**kern	**kern	**kern
*part4	*part3	*part2	*part1
*staff4	*staff3	*staff2	*staff1
*I"Bassus	*I"Tenor	*I"Altus	*I"Superius
*I'B.	*I'T.	*I'A.	*I'S.
*clefF4	*clefGv2	*clefGv2	*clefG2
*k[b-]	*k[b-]	*k[b-]	*k[b-]
*F:	*F:	*F:	*F:
*M2/1	*M2/1	*M2/1	*M2/1
*met(C|)	*met(C|)	*met(C|)	*met(C|)
=1	=1	=1	=1
!!section: Prima pars: Peccata mea, Domine
!!!OMD: Prima pars: Peccata mea, Domine
0r	0r	0r	0g
=2	=2	=2	=2
0r	0r	0r	1f
.	.	.	[1b-y
=3	=3	=3	=3
0r	0r	0d	2b-]
.	.	.	4a
.	.	.	4g
.	.	.	2a
.	.	.	2b-y
=4	=4	=4	=4
0r	0r	1c	2.cc
.	.	.	4b-y
.	.	[1f	4a
.	.	.	4g
.	.	.	[2a
=5	=5	=5	=5
0r	0r	2f]	2a]
.	.	4e	4g
.	.	4d	4f
.	.	2e	2g
.	.	2f	2a
=6	=6	=6	=6
0r	0G	2.g	2b-y
.	.	.	2g
.	.	4f	.
.	.	2e	1b-y
.	.	[2d	.
=7	=7	=7	=7
0r	1F	4d]	2.a
.	.	4e	.
.	.	2f	.
.	.	.	4g
.	[1B-y	2d	4f
.	.	.	4e
.	.	[2f	[2d
=8	=8	=8	=8
0D	2B-]	4f]	4d]
.	.	4e	4e
.	4A	4d	1f
.	4G	4c	.
.	2A	1d	.
.	2B-y	.	4e
.	.	.	4d
=9	=9	=9	=9
1C	[0c	1G	1e
[1F	.	1r	[1a
=10	=10	=10	=10
2F]	0c]	0r	2a]
4E	.	.	4g
4D	.	.	4f
2E	.	.	2g
2F	.	.	2a
=11	=11	=11	=11
[0G	2.B-y	0r	1d
.	4A	.	.
.	4G	.	1r
.	4F	.	.
.	[2E	.	.
=12	=12	=12	=12
0G]	4E]	0r	0r
.	4D	.	.
.	1d	.	.
.	4c	.	.
.	4B-y	.	.
=13	=13	=13	=13
2.F	4A	0r	0r
.	4F	.	.
.	2f	.	.
4G	.	.	.
4A	2f	.	.
4F	.	.	.
[2G	[2e	.	.
=14	=14	=14	=14
4G]	4e]	0r	0g
4F	4d	.	.
4E	1d	.	.
4D	.	.	.
1E	.	.	.
.	2c#i	.	.
=15	=15	=15	=15
1D	0d	0r	1f
[1G	.	.	[1b-y
=16	=16	=16	=16
2G]	0r	0d	2b-]
4F	.	.	4a
4E	.	.	4g
2F	.	.	2a
2G	.	.	2b-y
=17	=17	=17	=17
0A	0r	1c	[0cc
.	.	[1f	.
=18	=18	=18	=18
0r	0A	2f]	0cc]
.	.	4e	.
.	.	4d	.
.	.	2e	.
.	.	2f	.
=19	=19	=19	=19
0r	1G	[0g	2.b-y
.	.	.	4a
.	[1c	.	4g
.	.	.	4f
.	.	.	[2e
=20	=20	=20	=20
0r	2c]	0g]	4e]
.	.	.	4d
.	4B-y	.	1dd
.	4A	.	.
.	2B-y	.	.
.	2c	.	4cc
.	.	.	4b-y
=21	=21	=21	=21
0r	1.d	2.f	4a
.	.	.	4f
.	.	.	1ff
.	.	4g	.
.	.	4a	.
.	.	4f	.
.	2c	[2g	[2ee
=22	=22	=22	=22
0r	1B-y	4g]	4ee]
.	.	4f	4dd
.	.	4e	1dd
.	.	4d	.
.	1A	1e	.
.	.	.	2cc#i
=23	=23	=23	=23
1.B-y	1r	0d	2dd
.	.	.	4d
.	.	.	4e
.	[1B-y	.	2f
2G	.	.	2g
=24	=24	=24	=24
1B-y	2B-]	0r	2d
.	2G	.	1g
1A	2.c	.	.
.	.	.	2f#i
.	4d	.	.
=25	=25	=25	=25
2.G	2e	1.b-y	2g
.	2.d	.	4f
4A	.	.	4e
4B-y	.	.	1d
4c	4c	.	.
2d	4B-y	2g	.
.	4A	.	.
=26	=26	=26	=26
2B-y	2G	1b-y	0r
2G	1g	.	.
1d	.	1a	.
.	2f#i	.	.
=27	=27	=27	=27
[0G	2g	2.g	1.b-y
.	2G	.	.
.	.	8fL	.
.	.	8eJ	.
.	2.B-y	4d	.
.	.	4c	.
.	.	4B-y	2g
.	4c	4A	.
=28	=28	=28	=28
1G]	0d	2G	1b-y
.	.	1g	.
1D	.	.	1a
.	.	2f#i	.
=29	=29	=29	=29
2.G	0r	2g	2g
.	.	2G	2b-y
4A	.	.	.
2B-y	.	2G	2b-y
2c	.	2A	2a
=30	=30	=30	=30
1.d	0r	2.B-y	2.f
.	.	4c	4e
.	.	2d	2f
2c	.	[2e-i	[2g
=31	=31	=31	=31
1B-y	0r	4e-]	4g]
.	.	4d	4f
.	.	1d	4e
.	.	.	4d
1A	.	.	1e
.	.	2c#i	.
=32	=32	=32	=32
0r	1.B-y	2.d	0d
.	.	4e	.
.	.	2f	.
.	2G	2g	.
=33	=33	=33	=33
0r	1B-y	2d	0r
.	.	1g	.
.	1A	.	.
.	.	2f#i	.
=34	=34	=34	=34
1.B-y	2.G	2g	2r
.	.	4f	1dd
.	4A	4e	.
.	4B-y	1d	.
.	4c	.	.
2G	2d	.	2b-y
=35	=35	=35	=35
1B-y	2G	2r	1dd
.	1g	2B-y	.
1A	.	2.c	1cc
.	2f#i	.	.
.	.	4d	.
=36	=36	=36	=36
2G	2g	2e-i	2.b-y
2B-y	2G	1d	.
.	.	.	4a
2B-y	2G	.	2g
2A	2A	2c	2f
=37	=37	=37	=37
2G	2.B-y	2B-y	2g
4F	.	2G	2b-y
4E	4c	.	.
2F	2d	2A	2a
[2G	[2e-i	[2B-y	[2g
=38	=38	=38	=38
4G]	4e-]	4B-]	4g]
4F	4d	4A	4a
4E	1d	4G	1b-y
4D	.	4F	.
1E	.	1G	.
.	2c	.	4a
.	.	.	4g
=39	=39	=39	=39
0D	2d	2A	2f#i
.	4c	2.d	1g
.	4B-y	.	.
.	1A	.	.
.	.	4c	.
.	.	2d	2f#i
=40	=40	=40	=40
2r	0G	2B-y	0g
2B-y	.	2G	.
2G	.	2.B-y	.
[2B-y	.	.	.
.	.	4c	.
=41	=41	=41	=41
2B-]	2r	[0d	0r
4A	1G	.	.
4G	.	.	.
1A	.	.	.
.	2F	.	.
=42	=42	=42	=42
2.G	2.B-y	1d]	0r
8FL	4c	.	.
8EJ	.	.	.
2F	2d	2r	.
[2G	[2e-i	2B-y	.
=43	=43	=43	=43
4G]	4e-]	2G	1r
4F	4d	.	.
4E	1d	1B-y	.
4D	.	.	.
1E	.	.	2r
.	2c	4A	[2g
.	.	4G	.
=44	=44	=44	=44
1D	2.d	1A	2g]
.	.	.	2f
.	4c	.	.
1r	4B-y	2G	2.b-y
.	4A	.	.
.	4G	[2g	.
.	4A	.	4cc
=45	=45	=45	=45
0r	4B-y	2g]	2.dd
.	4c	.	.
.	1d	4f	.
.	.	4e	4cc
.	.	2f	2dd
.	2c	[2g	[2ee-i
=46	=46	=46	=46
1r	2d	4g]	4ee-]
.	.	4f	4dd
.	2B-y	4e	1dd
.	.	4d	.
2r	1A	1e	.
2A	.	.	2cc#i
=47	=47	=47	=47
2B-y	0r	1d	0dd
2G	.	.	.
2.B-y	.	2r	.
.	.	2d	.
4B-y	.	.	.
=48	=48	=48	=48
2A	1r	2f	0r
1G	.	2d	.
.	2r	2.f	.
2F	2A	.	.
.	.	4f	.
=49	=49	=49	=49
2G	2B-y	2e	0r
2.B-y	2G	2.d	.
.	2.B-y	.	.
4A	.	4c	.
2G	.	4d	.
.	4B-y	4B-y	.
=50	=50	=50	=50
2F	2A	4c	1r
.	.	4B-y	.
2G	1G	4A	.
.	.	4G	.
1D	.	1A	2r
.	2F#i	.	2a
=51	=51	=51	=51
0r	2G	2G	2b-y
.	2.B-y	2.d	2g
.	.	.	2.b-y
.	4c	4e	.
.	4d	4f	.
.	4B-y	4d	4b-y
=52	=52	=52	=52
1r	4c	4e	2a
.	4B-y	4d	.
.	4A	1d	1g
.	4G	.	.
2r	1A	.	.
2A	.	2c	2f#i
=53	=53	=53	=53
2B-y	2G	0d	2.g
2G	2.B-y	.	.
.	.	.	8fL
.	.	.	8eJ
2.B-y	.	.	2d
.	4c	.	.
.	2d	.	[2f
4B-y	.	.	.
=54	=54	=54	=54
2A	2c	0r	4f]
.	.	.	4e
1G	1B-y	.	4e
.	.	.	8dL
.	.	.	8eJ
.	.	.	2.f
2F	2A	.	.
.	.	.	8eL
.	.	.	8dJ
=55	=55	=55	=55
4G	1B-y	1r	4e
4F	.	.	4d
4E	.	.	1d
4D	.	.	.
1E	1G	2r	.
.	.	2e	2c#i
=56	=56	=56	=56
1.D	1A	2f	2d
.	.	2d	2.f
.	1r	2.f	.
.	.	.	4g
2D	.	.	[2a
.	.	4f	.
=57	=57	=57	=57
2G	1r	2e	4a]
.	.	.	4g
2G	.	1d	1g
1A	2r	.	.
.	2A	2c	2f#i
=58	=58	=58	=58
0G	2B-y	2.d	2g
.	2G	.	4f
.	.	4c	4e
.	2.B-y	2d	1d
.	.	2B-y	.
.	4B-y	.	.
=59	=59	=59	=59
1r	2A	4c	1r
.	.	4B-y	.
.	1G	4A	.
.	.	4G	.
1D	.	1A	2r
.	2F#i	.	2a
=60	=60	=60	=60
1.G	2G	1G	2b-y
.	2.B-y	.	2g
.	.	2.d	2.b-y
.	4c	.	.
2G	4d	.	.
.	4B-y	4e	4b-y
=61	=61	=61	=61
2F	4c	2f	2a
.	4B-y	.	.
2E	4A	2c	1g
.	4G	.	.
1D	1A	1d	.
.	.	.	2f#i
=62	=62	=62	=62
0G	1G	2r	0g
.	.	1d	.
.	2r	.	.
.	2d	4c	.
.	.	4B-y	.
=63	=63	=63	=63
0r	2e	2c	2r
.	1f	2d	1a
.	.	1f	.
.	4e	.	4g
.	4d	.	4f
=64	=64	=64	=64
0r	2c	2e	2g
.	2f	1d	2a
.	1e	.	1cc
.	.	2c	.
=65	=65	=65	=65
1r	[0d	4d	2b-y
.	.	4c	.
.	.	4B-y	1a
.	.	4A	.
2r	.	1B-y	.
[2G	.	.	2g
=66	=66	=66	=66
2G]	1d]	2.A	1a
4F	.	.	.
4E	.	4G	.
2F	2r	2A	1r
2G	[2d	[2B-y	.
=67	=67	=67	=67
1B-y	2d]	4B-]	0r
.	.	4A	.
.	4c	2G	.
.	4B-y	.	.
2A	2c	2F	.
[2G	2d	2B-y	.
=68	=68	=68	=68
2G]	1f	1A	0r
2F	.	.	.
4G	2e	1G	.
4F	.	.	.
4E	[2d	.	.
4D	.	.	.
=69	=69	=69	=69
1E	2d]	2r	0r
.	2c	1g	.
1D	2.d	.	.
.	.	4f	.
.	4c	4e	.
=70	=70	=70	=70
0r	4B-y	2f	2r
.	4A	.	.
.	2.G	2g	1dd
.	.	1b-y	.
.	4F	.	.
.	2G	.	4cc
.	.	.	4b-y
=71	=71	=71	=71
0r	2A	2a	2cc
.	2B-y	1g	2dd
.	1d	.	1ff
.	.	2f	.
=72	=72	=72	=72
0r	2c	4g	2ee
.	.	4f	.
.	2B-y	4e	1dd
.	.	4d	.
.	1A	1e	.
.	.	.	2cc#i
=73	=73	=73	=73
2r	0r	0d	[0dd
1G	.	.	.
4F	.	.	.
4E	.	.	.
=74	=74	=74	=74
2F	2r	2r	0dd]
2G	1d	1g	.
1B-y	.	.	.
.	4c	4f	.
.	4B-y	4e	.
=75	=75	=75	=75
2A	2c	2f	0r
1G	2d	2g	.
.	1f	1a	.
2F	.	.	.
=76	=76	=76	=76
2G	0r	2g	2r
1B-y	.	4f	1dd
.	.	4e	.
.	.	4d	.
.	.	4e	.
4A	.	4f	4cc
4G	.	4g	4b-y
=77	=77	=77	=77
2A	2r	2e-i	2cc
2B-y	1d	2d	2dd
1d	.	2B-y	1ff
.	4c	2d	.
.	4B-y	.	.
=78	=78	=78	=78
2r	2c	2c	2ee
2.D	2d	2A	1ff
.	1f	[1a	.
4E	.	.	.
4F	.	.	4ee
4G	.	.	4dd
=79	=79	=79	=79
2A	2e	1a]	4cc
.	.	.	4b-y
2A	1f	.	4a
.	.	.	4g
1D	.	2r	4a
.	.	.	4f
.	4e	[2a	2ff
.	4d	.	.
=80	=80	=80	=80
2A	2c	4a]	2ee
.	.	4f	.
2B-y	2d	2g	1dd
1A	1e	1a	.
.	.	.	2cc#i
=81	=81	=81	=81
1r	1d	0f	1dd
[1B-y	1r	.	1r
=82	=82	=82	=82
2B-]	1.d	2r	1.b-y
2B-y	.	1f	.
1B-y	.	.	.
.	2d	2f	2b-y
=83	=83	=83	=83
0G	1d	1g	1b-y
.	1B-y	2.d	1b-y
.	.	4e	.
=84	=84	=84	=84
0F	1c	4f	0a
.	.	4e	.
.	.	2.f	.
.	[1d	.	.
.	.	4e	.
.	.	4d	.
.	.	4c	.
=85	=85	=85	=85
1.G	2d]	2B-y	1r
.	2d	2G	.
.	1d	[1g	[1b-y
2G	.	.	.
=86	=86	=86	=86
1G	1B-y	2g]	2b-]
.	.	2g	2b-y
1G	1G	2g	2b-y
.	.	2g	2b-y
=87	=87	=87	=87
0D	1A	2.f	2.a
.	.	4e	4g
.	1F	2.d	4a
.	.	.	4f
.	.	.	[2b-y
.	.	4c	.
=88	=88	=88	=88
0E-X	0G	1.B-y	4b-]
.	.	.	4a
.	.	.	4g
.	.	.	4f
.	.	.	1g
.	.	2c	.
=89	=89	=89	=89
0Dl	0Al	0dl	0fl
=90||	=90||	=90||	=90||
*M2/1	*M2/1	*M2/1	*M2/1
*met(C|)	*met(C|)	*met(C|)	*met(C|)
!!section: Secunda pars: Quoniam iniquitatem
!!!OMD: Secunda pars: Quoniam iniquitatem
0r	0r	1.d	0r
.	.	4c	.
.	.	4B-y	.
=91	=91	=91	=91
0r	0r	2c	0r
.	.	2B-y	.
.	.	1e-X	.
=92	=92	=92	=92
0r	0r	2d	1.a
.	.	1f	.
.	.	4e	4g
.	.	4d	4f
=93	=93	=93	=93
0r	0r	2c	2g
.	.	2d	2f
.	.	4B-y	1b-y
.	.	4c	.
.	.	4d	.
.	.	4e	.
=94	=94	=94	=94
0r	1.d	1f	2a
.	.	.	2f
.	.	2r	1ff
.	4c	2d	.
.	4B-y	.	.
=95	=95	=95	=95
0r	2c	2e	2ee
.	2B-y	2f	1dd
.	1e-X	1g	.
.	.	.	2cc
=96	=96	=96	=96
1r	2d	2.f	2dd
.	1f	.	2a
.	.	8eL	.
.	.	8dJ	.
[1A	.	4c	2.cc
.	.	4B-y	.
.	4e	[2c	.
.	4d	.	4b-y
=97	=97	=97	=97
2A]	2.c	2c]	4a
.	.	.	4g
4G	.	2A	2cc
4F	4d	.	.
2G	2e	2B-y	2b-y
2F	[2f	2c	[2a
=98	=98	=98	=98
1B-y	4f]	1d	2a]
.	4e	.	.
.	1d	.	2g
1A	.	1e	2.a
.	2c#i	.	.
.	.	.	4g
=99	=99	=99	=99
2r	0d	1d	4f
.	.	.	4e
2D	.	.	2f
2D	.	2r	4d
.	.	.	4e
2D	.	2A	4f
.	.	.	4g
=100	=100	=100	=100
2.F	0r	2A	4a
.	.	.	4b-y
.	.	2A	1cc
4G	.	.	.
4A	.	2.c	.
4B-y	.	.	.
[2c	.	.	4b-y
.	.	4d	4a
=101	=101	=101	=101
2c]	0r	4e	1g
.	.	4f	.
2B-y	.	1g	.
1A	.	.	1r
.	.	2f	.
=102	=102	=102	=102
2G	2r	1e	1r
2.B-y	2G	.	.
.	2G	1d	2r
4A	.	.	.
[2G	2G	.	2d
=103	=103	=103	=103
2G]	2.B-y	0r	2d
4F	.	.	2d
4E	4c	.	.
[1D	4d	.	2.f
.	4e	.	.
.	2f	.	.
.	.	.	4g
=104	=104	=104	=104
2D]	2f	0r	4a
.	.	.	4b-y
2E	2e	.	1cc
2F	1d	.	.
2G	.	.	2b-y
=105	=105	=105	=105
2A	2c	1r	1a
2F	1f	.	.
1G	.	2r	1g
.	2e	2b-y	.
=106	=106	=106	=106
1F	2.f	2b-y	0r
.	.	2a	.
.	4d	.	.
2r	2e	2g	.
2B-y	2d	[2f	.
=107	=107	=107	=107
2B-y	2r	2f]	0r
2B-y	2f	4e	.
.	.	4d	.
2A	2f	4c	.
.	.	4B-y	.
2F	2f	2c	.
=108	=108	=108	=108
2.G	1e	1B-y	0r
4A	.	.	.
4B-y	2.d	2r	.
4A	.	.	.
[2B-y	.	2b-y	.
.	4c	.	.
=109	=109	=109	=109
2B-]	4d	2b-y	2r
.	4e	.	.
4A	1f	2b-y	2ff
4G	.	.	.
1F	.	2a	2ff
.	4e	2f	2ff
.	4d	.	.
=110	=110	=110	=110
0r	1c	2.g	1ee
.	.	4a	.
.	1r	4b-y	2.dd
.	.	4g	.
.	.	[2b-y	.
.	.	.	4cc
=111	=111	=111	=111
1r	0r	2b-]	4dd
.	.	.	4ee
.	.	4a	1ff
.	.	4g	.
2r	.	2.f	.
2D	.	.	4ee
.	.	4g	4dd
=112	=112	=112	=112
2F	2r	1a	4cc
.	.	.	4a
2G	2A	.	2.cc
1A	1c	1r	.
.	.	.	4b-y
.	.	.	4a
.	.	.	4g
=113	=113	=113	=113
2.B-y	2.d	1r	1f
4G	4e	.	.
2A	4f	2r	1r
.	4e	.	.
[2B-y	4d	2d	.
.	4c	.	.
=114	=114	=114	=114
4B-]	2d	2f	0r
4A	.	.	.
1G	2B-y	2g	.
.	1A	1a	.
2F	.	.	.
=115	=115	=115	=115
1G	2G	2.b-y	1r
.	2B-y	.	.
.	.	4g	.
2C	2c	2a	2r
2G	[2d	[2b-y	2d
=116	=116	=116	=116
2D	2d]	4b-]	2f
.	.	4a	.
2E	2G	1g	2g
1D	1d	.	1a
.	.	2f#i	.
=117	=117	=117	=117
1r	0r	2.g	2.b-y
.	.	4d	4g
2r	.	2f	2a
[2G	.	2g	[2b-y
=118	=118	=118	=118
4G]	2r	4G	4b-]
4F	.	4A	4a
4G	2G	4B-y	1g
4E	.	4G	.
2.F	2c	1A	.
.	2d	.	2f
4E	.	.	.
=119	=119	=119	=119
2C	1e	0r	1g
2c	.	.	.
2A	2.f	.	1r
2B-y	.	.	.
.	4d	.	.
=120	=120	=120	=120
2G	2e	2r	0r
2.A	2.f	2F	.
.	.	2c	.
4G	4e	.	.
2F	[2d	2d	.
=121	=121	=121	=121
1E	2d]	1e	0r
.	2c	.	.
2D	2d	2.f	.
2d	2f	.	.
.	.	4d	.
=122	=122	=122	=122
2c	2g	2e	2r
2F	1a	2.f	2a
1A	.	.	2cc
.	.	4e	.
.	4g	[2d	2dd
.	4f	.	.
=123	=123	=123	=123
2r	4e	2d]	1ee
.	4d	.	.
2A	2e	2c	.
2F	1d	4d	1ff
.	.	4e	.
2D	.	4f	.
.	.	4d	.
=124	=124	=124	=124
0A	1.c	2e	2.ee
.	.	1a	.
.	.	.	4dd
.	.	.	4ee
.	.	.	4cc
.	2c	2a	[2ff
=125	=125	=125	=125
1B-y	1d	2f	4ff]
.	.	.	4ee
.	.	2g	1dd
1A	1e	1a	.
.	.	.	2cc#i
=126	=126	=126	=126
0D	1d	2r	[0dd
.	.	1a	.
.	1r	.	.
.	.	2a	.
=127	=127	=127	=127
0r	2r	2g	0dd]
.	1d	1f	.
.	2d	4e	.
.	.	4d	.
=128	=128	=128	=128
2r	2c	2e	0r
1G	1B-y	2.d	.
.	.	4c	.
2G	4A	4d	.
.	4G	4e	.
=129	=129	=129	=129
2F	2A	2f	0r
1E	2B-y	1g	.
.	1G	.	.
2C	.	4f	.
.	.	4e	.
=130	=130	=130	=130
2D	2F	2f	0r
2E	1B-y	2g	.
1C	.	1e	.
.	2A	.	.
=131	=131	=131	=131
2BB-y	1B-y	2.d	2r
1B-y	.	.	1dd
.	.	4e	.
.	2r	2f	.
2G	2B-y	[2g	2dd
=132	=132	=132	=132
2A	2c	4g]	2cc
.	.	4f	.
2B-y	1d	1f	1b-y
1G	.	.	.
.	2B-y	[2e	4a
.	.	.	4g
=133	=133	=133	=133
2F	2c	4e]	2a
.	.	4d	.
2D	2F	1d	2b-y
1E	1G	.	1g
.	.	2c#i	.
=134	=134	=134	=134
1D	1A	1d	1f
1D	2r	2r	1f
.	2A	2d	.
=135	=135	=135	=135
1G	1B-y	2d	1g
.	.	2B-y	.
1G	1B-y	2d	[1b-y
.	.	2e	.
=136	=136	=136	=136
1.F	2.c	1f	2b-]
.	.	.	4a
.	4B-y	.	4g
.	2c	2r	2a
4E	2d	2F	2b-y
4D	.	.	.
=137	=137	=137	=137
2C	2e	2G	2.cc
2F	1f	2A	.
.	.	.	8b-yL
.	.	.	8ccJ
2BB-y	.	4F	2dd
.	.	2B-y	.
2F	4e	.	[2cc
.	4d	4A	.
=138	=138	=138	=138
1G	4e	4B-y	4cc]
.	4d	4c	4b-y
.	4c	4d	1b-y
.	4B-y	4e	.
1F	1c	1f	.
.	.	.	2a
=139	=139	=139	=139
1r	1B-y	0d	1b-y
[1B-y	[1G	.	[1dd
=140	=140	=140	=140
2B-]	2G]	1r	2dd]
2A	2A	.	2cc
1G	1B-y	1d	1b-y
=141	=141	=141	=141
0F	1c	1f	0a
.	1r	1f	.
=142	=142	=142	=142
1r	0B-y	2.d	1r
.	.	4c	.
[1G	.	4d	1b-y
.	.	4B-y	.
.	.	[2e-i	.
=143	=143	=143	=143
2G]	1G	4e-]	2b-y
.	.	4d	.
2F	.	1d	2a
1E-i	1G	.	1g
.	.	2c	.
=144	=144	=144	=144
1D	1A	0d	1f
1BB-y	1B-y	.	1f
=145	=145	=145	=145
0E-X	0G	2B-y	2g
.	.	2G	1b-y
.	.	2.B-y	.
.	.	.	4a
.	.	4c	4g
=146	=146	=146	=146
0D	0A	[0d	2f#i
.	.	.	1g
.	.	.	2f#i
=147	=147	=147	=147
1r	1G	0d]	1g
[1B-y	2r	.	[1dd
.	2G	.	.
=148	=148	=148	=148
2B-]	2G	1r	2dd]
2A	2A	.	2cc
1G	1B-y	1d	1b-y
=149	=149	=149	=149
0F	1c	1f	0a
.	1r	1f	.
=150	=150	=150	=150
1r	0B-y	2.d	1r
.	.	4c	.
[1G	.	4d	[1b-y
.	.	4B-y	.
.	.	[2e-i	.
=151	=151	=151	=151
2G]	1G	4e-]	2b-]
.	.	4d	.
2F	.	1d	2a
1E-i	1G	.	1g
.	.	2c	.
=152	=152	=152	=152
1D	1A	0d	1f
1BB-y	1B-y	.	1f
=153	=153	=153	=153
0E-X	0G	2B-y	2g
.	.	2G	1b-y
.	.	2.B-y	.
.	.	.	4a
.	.	4c	4g
=154	=154	=154	=154
0D	0A	[0dl	2f#i
.	.	.	1g
.	.	.	2f#i
=155	=155	=155	=155
0Gl	0Gl	0d]	0gl
==	==	==	==
*-	*-	*-	*-
!!!system-decoration: s1,s2,s3,s4
!!!RDF**kern: i = editorial accidental
!!!RDF**kern: l = terminal long
!!!ENC: Max Blistain
!!!END: 2026/01/28
!!!EED: Benjamin Ory
!!!EEV: 2026/01/29
!!!YEC: Copyright 2026 Benjamin Ory, All Rights Reserved
!!!ONB: Translated from MusicXML on 2026/01/29
